X:46
T:Thunderbolt Hornpipe
M:2/4
L:1/16
Z: Jason R. Fruit <Jason R. Fruit@big-mac>
N: From Bob Walters, 1949.
K:Bb
FE | D[DB,]2[DB,]/[DB,]/ [DB,]2[DB,]2 | B,DFB dBFD | [FC][FC]2[FC]/[FC]/ [FC]2[FC]2 | ABcd cAFE |
D[DB,]2[DB,]/[DB,]/ [DB,]2[DB,]2 | B,DFB dBFD | CFAc ecAF | B2(3(cBA) B2 :|
|:ff | bfdB FBdB | cBAG F4 | Ag2g g2f2 | 
Af2A fgf2 | [fB]4 [fc]4 | [fd]4 [ge]4 | fbag fedc | B2 (3(cBA) B2 :|

